X: 50
M:3/4
L:1/8
K:D
[G2B2] [B3d3]e | [B4d4][G2B2] | [F6A6] | [F2A2][F2d2][d2f2] |
[f6a6] | {^g}[f6a6] | {^g}[f2a2] [f2d'2] [fc'][df] | [F4d4] [E2c2] |
(B2 [G4e4]) | [G4e4] [A2f2] | edefed | dB Ad [d2f2] | [f6a6] |
{^g}[f6a6] | {^g}[f3a3] b[fa][df] | [F4d4] [E2c2] | [G2B2][B3d3]e |
[B4d4][G2B2] | [F6A6] | [F4A4][F2A2] | BG AB df | abafdB |
E4D2 | (F6 | A,6) | (B,4C2) | (D4F2) | (E6 | E2)(D2E2) | F6 | (E2D2E2) |
(F6 | A,6) | (B,4 D2) | (D4 E2) | (D6 | D2) || d2 [d2f2] | [f6a6] | {^g}[f6a6] |
{^g}[d3f3] (b[fa][df]) | [F4d4] [E2c2] | [G2B2][B3d3]e | [B4(d4][G2B2)] |
([F6A6] | [F2A2])[F2d2][d2f2] | ] | [f6a6] | {^g}[f6a6] | {^g}[f2a2][f2d'2][fa][df] |
[F4d4][E2c2] | B2 [G4(e4] | [G4e4)] [A2f2] | edefed | dB Ad [d2f2] |
| [f6a6] | {^g}[f6a6] | {^g}[f3a3] (b[fa][df]) | [F4d4][E2c2] | [G2B2][B3d3]e |
[B4(d4] [G2B2)] | [F6A6] | [F4A4] [F2A2] | BG AB df | abafdB | A2^G2A2 |
[d6f6] | e4cA | [F2d2][d2f2][f2a2] | (d'6 | d'2) z2z2 |]

